X: 17730
T: Home To Bally Cashen
R: jig
M: 6/8
K: Dmajor
D2E|:F3 GAG|FED EFG|Adf edA|G3 EFG|
FAd FAd|FED EFG|Adf edA|1 GFE D2E:|2 GFE D2e||
|:f3 deB|A2f afd|e2f gfe|f2d cBA|
f3 deB|A2f afd|e2f gfe|1 dfe d2e:|2 dfe d2G||

